christians-website/frontend/static/images/BarfriendsApp/barfriendsLabel.svg

<svg height="163" viewBox="0 0 815 163" width="815" xmlns="http://www.w3.org/2000/svg"><path d="m295.838707 55.9029294v-.1655982h-.067403v-.0403526h.067403v-.0175116c0-.023095.014583-.0410187.043749-.0537718.029166-.012753.069984-.0191294.122456-.0191294.016746 0 .03726.0012689.061542.0038068l-.001256.0426368c-.010048-.0011421-.022328-.0017131-.036842-.0017131-.045493 0-.06824.0097074-.06824.0291225v.0165598h.09001v.0403526h-.09001v.1655982zm-295.838707 106.8172876v-162.14281839h56.5619224c19.5934436 0 34.4546628 3.7677041 44.5841036 11.30322539 10.129441 7.5355212 15.194085 18.5787918 15.194085 33.1301432 0 7.94385-2.033251 14.9410147-6.099815 20.9917042s-9.7227 10.4865579-16.968577 13.3077382c8.281003 2.0787645 14.805891 6.2733513 19.574861 12.5838864 4.768971 6.310535 7.15342 14.031544 7.15342 23.16326 0 15.590733-4.95374 27.394969-14.861368 35.41306-9.9076279 8.018092-24.029483 12.101318-42.3659887 12.249801zm32.3693741-68.906206v42.525344h27.6952985c7.6153471 0 13.5602577-1.821466 17.8349101-5.464453 4.2746524-3.642986 6.4119466-8.674561 6.4119466-15.094874 0-14.427669-7.4356284-21.749602-22.3071082-21.966017zm0-23.0769425h23.9235652c16.3083378-.2885534 24.4623843-6.816976 24.4623843-19.5854638 0-7.1416965-2.0654523-12.2814768-6.1964189-15.419495s-10.6506118-4.7070037-19.5591311-4.7070037h-22.6303995zm154.2750179 90.4272535c-1.201433-2.338457-2.072459-5.246494-2.613105-8.7242-6.307525 7.015371-14.507185 10.523005-24.599226 10.523005-9.551395 0-17.465719-2.758139-23.743209-8.2745-6.277489-5.51636-9.416187-12.471667-9.416187-20.866128 0-10.313196 3.829512-18.227855 11.48865-23.744215 7.659138-5.516361 18.727177-8.304479 33.20445-8.36444h11.984238v-5.5762928c0-4.4970329-1.156362-8.0946053-3.469122-10.7928251-2.312759-2.6982197-5.962058-4.0473094-10.948007-4.0473094-4.385232 0-7.824283 1.049292-10.317258 3.1479073-2.492974 2.0986154-3.739443 4.9766733-3.739443 8.6342601h-26.040938c0-5.6362813 1.742052-10.8527612 5.226209-15.6495964 3.484157-4.7968351 8.40996-8.5592962 14.777557-11.2874962s13.516018-4.0922795 21.445479-4.0922795c12.014334 0 21.550569 3.0129668 28.60899 9.038991 7.058421 6.0260241 10.587579 14.4953091 10.587579 25.408109v42.181958c.060071 9.233908 1.351593 16.219194 3.874603 20.956069v1.528983zm-27.071084-14.547434c4.258661 0 8.184555-.952103 11.7778-2.856337s6.254868-4.459878 7.98495-7.667009v-18.641355h-10.779682c-14.439522 0-22.124959 5.011067-23.056541 15.033351l-.099812 1.70378c0 3.608022 1.264271 6.581255 3.792851 8.919788s5.98869 3.507782 10.380434 3.507782zm118.496331-56.9166892c-3.544237-.4796835-6.667924-.7195217-9.371155-.7195217-9.851776 0-16.309398 3.3277545-19.373061 9.9833632v63.6776677h-26.040997v-97.3153059h24.599281l.720858 11.602287c5.226247-8.9341054 12.464792-13.4010911 21.71585-13.4010911 2.883446 0 5.586637.389737 8.109653 1.1692227zm10.708684 73.2998012v-91.0789981c-.032594.0055588-.048897.0055588-.048909 0-.000012-.0055549-.033428-7.4241785-.033416-22.1939627 0-.0068763.011139-.0068763.033416 0l.048909-9.6313423c0-12.7022687 3.631678-22.5603375 10.895142-29.5745023 7.263465-7.0141648 17.428688-10.5211946 30.495974-10.5211946 4.170411 0 9.279087.69791638 15.326182 2.09377007l-.312779 23.45022483c-2.502247-.6281342-5.560502-.9421966-9.174857-.9421966-11.329615 0-16.994338 5.3390603-16.994338 16.0173411v9.1078998h22.415844v22.1939627h-22.415844v91.0789981zm117.267926-73.3007708c-3.544229-.4796658-6.667909-.7194951-9.371134-.7194951-9.851754 0-16.309361 3.3276312-19.373017 9.9829934v63.6753085h-26.040938v-97.3117005h24.599226l.720856 11.6018571c5.226235-8.9337744 12.464763-13.4005946 21.7158-13.4005946 2.88344 0 5.586625.3897225 8.109635 1.1691794zm37.17336 72.9424788h-26.484034v-99.11411h26.484034zm-26.484034-129.7881089c0-3.7542815 1.251077-6.8442977 3.753267-9.2701411 2.502191-2.4258435 5.910296-3.638747 10.224418-3.638747 4.2566 0 7.650324 1.2129035 10.181276 3.638747 2.530951 2.4258434 3.796408 5.5158596 3.796408 9.2701411 0 3.8120398-1.279837 6.9309346-3.839549 9.356778-2.559712 2.4258435-5.939057 3.638747-10.138135 3.638747-4.199079 0-7.578423-1.2129035-10.138136-3.638747-2.559712-2.4258434-3.839549-5.5447382-3.839549-9.356778zm82.864413 129.7881089c-13.210191 0-23.964125-4.299024-32.262123-12.897201s-12.446935-20.052427-12.446935-34.363092v-2.473436c0-9.599335 1.748382-18.1826605 5.245197-25.7502344s8.450562-13.3977574 14.86139-17.4907254c6.410828-4.0929679 13.723503-6.1394212 21.938244-6.1394212 12.322111 0 22.021465 4.1223519 29.098353 12.3671795s10.615279 19.93464 10.615279 35.0697875v10.423766h-57.364135c.77707 6.242512 3.122121 11.248225 7.035224 15.017289s8.86685 5.653568 14.86139 5.653568c9.269336 0 16.512631-3.56289 21.730101-10.688776l11.822507 14.045582c-3.607826 5.41803-8.492193 9.64344-14.653248 12.676359-6.161056 3.032919-12.988069 4.549355-20.481244 4.549355zm-3.114552-78.430706c-4.773431 0-8.644847 1.7078315-11.614365 5.1235458-2.969517 3.4157143-4.870535 8.3036459-5.70311 14.6639412h33.46935v-2.031751c-.11101-5.6535957-1.554118-10.0262334-4.329369-13.1180437-2.77525-3.0918104-6.716046-4.6376923-11.822506-4.6376923zm73.459945-16.3457794.78526 10.9512444c6.747456-8.4690047 15.7924-12.7034435 27.135104-12.7034435 10.004848 0 17.450204 2.9495056 22.336292 8.8486055 4.886088 5.8990998 7.387262 14.7184138 7.503598 26.458207v61.239358h-25.215579v-60.626089c0-5.3734372-1.163337-9.2720413-3.490046-11.6959288-2.326708-2.4238876-6.194804-3.6358132-11.604401-3.6358132-7.096462 0-12.418728 3.0371148-15.966958 9.1114354v66.8463956h-25.215579v-94.7939714zm68.22614 44.7671144c0-14.892543 3.363562-26.7534219 10.090788-35.5829927s15.928867-13.24429 27.605198-13.24429c9.364773 0 17.099485 3.4729124 23.204369 10.4188415v-73.3214931h25.782632v160.2040353h-23.204369l-1.244679-10.153955c-6.401237 7.946613-14.639743 11.919861-24.715765 11.919861-11.320706 0-20.403807-4.429435-27.249574-13.288438-6.845768-8.859003-10.2686-21.176069-10.2686-36.951569zm25.748365 1.880107c0 8.947298 1.570651 15.804829 4.711999 20.572797s7.705124 7.151917 13.691466 7.151917c7.942276 0 13.543275-3.325755 16.803164-9.977365v-37.7020794c-3.200619-6.65161-8.742347-9.9773651-16.625352-9.9773651-12.38758 0-18.581277 9.9772653-18.581277 29.9320955zm126.335141 19.649114c0-3.124279-1.541042-5.585348-4.623172-7.383282-3.082129-1.797935-8.028139-3.404261-14.838178-4.819029-22.66099-4.774842-33.991316-14.442277-33.991316-29.0025965 0-8.4886071 3.507705-15.5770773 10.523219-21.265623 7.015514-5.6885458 16.188381-8.532776 27.518876-8.532776 12.093689 0 21.76556 2.8589671 29.015903 8.5769872s10.87546 13.14544 10.87546 22.2824824h-25.449457c0-3.654817-1.174127-6.6758905-3.522416-9.0633113-2.348289-2.3874207-6.017436-3.5811132-11.007551-3.5811132-4.285627 0-7.602536.9726383-9.950825 2.9179441s-3.522416 4.4211124-3.522416 7.4274941c0 2.8295358 1.335569 5.1137621 4.006748 6.8527476 2.671179 1.7389856 7.176891 3.2421536 13.517272 4.5095496 6.340381 1.267397 11.682659 2.69688 16.026994 4.288494 13.443955 4.951688 20.165832 13.528589 20.165832 25.730962 0 8.724402-3.727853 15.783398-11.183671 21.1772-7.455818 5.393803-17.08366 8.090664-28.883813 8.090664-7.984183 0-15.072975-1.429484-21.266587-4.288494-6.193613-2.85901-11.051563-6.779037-14.573997-11.760199s-5.283624-10.360147-5.283624-16.137115h24.12855c.234829 4.539047 1.90796 8.016965 5.019443 10.433861 3.111483 2.416895 7.279634 3.625324 12.504578 3.625324 4.8727 0 8.556523-.928427 11.05158-2.78531 2.495058-1.856883 3.742568-4.288479 3.742568-7.294861z" fill="#f87000" fill-rule="evenodd"/></svg>

<?xml version="1.0" encoding="UTF-8"?>
<svg width="815px" height="163px" viewBox="0 0 815 163" version="1.1" xmlns="http://www.w3.org/2000/svg" xmlns:xlink="http://www.w3.org/1999/xlink">
    <!-- Generator: Sketch 52.5 (67469) - http://www.bohemiancoding.com/sketch -->
    <title>barfriendsLabel</title>
    <desc>Created with Sketch.</desc>
    <g id="barfriendsLabel" stroke="none" stroke-width="1" fill="none" fill-rule="evenodd">
        <path d="M295.838707,55.9029294 L295.838707,55.7373312 L295.771304,55.7373312 L295.771304,55.6969786 L295.838707,55.6969786 L295.838707,55.679467 C295.838707,55.656372 295.85329,55.6384483 295.882456,55.6256952 C295.911622,55.6129422 295.95244,55.6065658 296.004912,55.6065658 C296.021658,55.6065658 296.042172,55.6078347 296.066454,55.6103726 L296.065198,55.6530094 C296.05515,55.6518673 296.04287,55.6512963 296.028356,55.6512963 C295.982863,55.6512963 295.960116,55.6610037 295.960116,55.6804188 L295.960116,55.6969786 L296.050126,55.6969786 L296.050126,55.7373312 L295.960116,55.7373312 L295.960116,55.9029294 L295.838707,55.9029294 Z M0,162.720217 L0,0.577398609 L56.5619224,0.577398609 C76.155366,0.577398609 91.0165852,4.34510271 101.146026,11.880624 C111.275467,19.4161452 116.340111,30.4594158 116.340111,45.0107672 C116.340111,52.9546172 114.30686,59.9517819 110.240296,66.0024714 C106.173732,72.0531609 100.517596,76.4890293 93.271719,79.3102096 C101.552722,81.3889741 108.07761,85.5835609 112.84658,91.894096 C117.615551,98.204631 120,105.92564 120,115.057356 C120,130.648089 115.04626,142.452325 105.138632,150.470416 C95.2310041,158.488508 81.109149,162.571734 62.7726433,162.720217 L0,162.720217 Z M32.3693741,93.814011 L32.3693741,136.339355 L60.0646726,136.339355 C67.6800197,136.339355 73.6249303,134.517889 77.8995827,130.874902 C82.1742351,127.231916 84.3115293,122.200341 84.3115293,115.780028 C84.3115293,101.352359 76.8759009,94.030426 62.0044211,93.814011 L32.3693741,93.814011 Z M32.3693741,70.7370685 L56.2929393,70.7370685 C72.6012771,70.4485151 80.7553236,63.9200925 80.7553236,51.1516047 C80.7553236,44.0099082 78.6898713,38.8701279 74.5589047,35.7321097 C70.4279381,32.5940915 63.9082929,31.025106 54.9997736,31.025106 L32.3693741,31.025106 L32.3693741,70.7370685 Z M186.644392,161.164322 C185.442959,158.825865 184.571933,155.917828 184.031287,152.440122 C177.723762,159.455493 169.524102,162.963127 159.432061,162.963127 C149.880666,162.963127 141.966342,160.204988 135.688852,154.688627 C129.411363,149.172267 126.272665,142.21696 126.272665,133.822499 C126.272665,123.509303 130.102177,115.594644 137.761315,110.078284 C145.420453,104.561923 156.488492,101.773805 170.965765,101.713844 L182.950003,101.713844 L182.950003,96.1375512 C182.950003,91.6405183 181.793641,88.0429459 179.480881,85.3447261 C177.168122,82.6465064 173.518823,81.2974167 168.532874,81.2974167 C164.147642,81.2974167 160.708591,82.3467087 158.215616,84.445324 C155.722642,86.5439394 154.476173,89.4219973 154.476173,93.0795841 L128.435235,93.0795841 C128.435235,87.4433028 130.177287,82.2268229 133.661444,77.4299877 C137.145601,72.6331526 142.071404,68.8706915 148.439001,66.1424915 C154.806598,63.4142915 161.955019,62.050212 169.88448,62.050212 C181.898814,62.050212 191.435049,65.0631788 198.49347,71.089203 C205.551891,77.1152271 209.081049,85.5845121 209.081049,96.497312 L209.081049,138.67927 C209.14112,147.913178 210.432642,154.898464 212.955652,159.635339 L212.955652,161.164322 L186.644392,161.164322 Z M159.573308,146.616888 C163.831969,146.616888 167.757863,145.664785 171.351108,143.760551 C174.944353,141.856317 177.605976,139.300673 179.336058,136.093542 L179.336058,117.452187 L168.556376,117.452187 C154.116854,117.452187 146.431417,122.463254 145.499835,132.485538 L145.400023,134.189318 C145.400023,137.79734 146.664294,140.770573 149.192874,143.109106 C151.721454,145.447639 155.181564,146.616888 159.573308,146.616888 Z M278.069639,89.7001988 C274.525402,89.2205153 271.401715,88.9806771 268.698484,88.9806771 C258.846708,88.9806771 252.389086,92.3084316 249.325423,98.9640403 L249.325423,162.641708 L223.284426,162.641708 L223.284426,65.3264021 L247.883707,65.3264021 L248.604565,76.9286891 C253.830812,67.9945837 261.069357,63.527598 270.320415,63.527598 C273.203861,63.527598 275.907052,63.917335 278.430068,64.6968207 L278.069639,89.7001988 Z M288.778323,163 L288.778323,71.9210019 C288.745729,71.9265607 288.729426,71.9265607 288.729414,71.9210019 C288.729402,71.915447 288.695986,64.4968234 288.695998,49.7270392 C288.695998,49.7201629 288.707137,49.7201629 288.729414,49.7270392 L288.778323,40.0956969 C288.778323,27.3934282 292.410001,17.5353594 299.673465,10.5211946 C306.93693,3.5070298 317.102153,0 330.169439,0 C334.33985,0 339.448526,0.697916378 345.495621,2.09377007 L345.182842,25.5439949 C342.680595,24.9158607 339.62234,24.6017983 336.007985,24.6017983 C324.67837,24.6017983 319.013647,29.9408586 319.013647,40.6191394 L319.013647,49.7270392 L341.429491,49.7270392 L341.429491,71.9210019 L319.013647,71.9210019 L319.013647,163 L288.778323,163 Z M406.046249,89.6992292 C402.50202,89.2195634 399.37834,88.9797341 396.675115,88.9797341 C386.823361,88.9797341 380.365754,92.3073653 377.302098,98.9627275 L377.302098,162.638036 L351.26116,162.638036 L351.26116,65.3263355 L375.860386,65.3263355 L376.581242,76.9281926 C381.807477,67.9944182 389.046005,63.527598 398.297042,63.527598 C401.180482,63.527598 403.883667,63.9173205 406.406677,64.6967774 L406.046249,89.6992292 Z M443.219609,162.641708 L416.735575,162.641708 L416.735575,63.527598 L443.219609,63.527598 L443.219609,162.641708 Z M416.735575,32.8535991 C416.735575,29.0993176 417.986652,26.0093014 420.488842,23.583458 C422.991033,21.1576145 426.399138,19.944711 430.71326,19.944711 C434.96986,19.944711 438.363584,21.1576145 440.894536,23.583458 C443.425487,26.0093014 444.690944,29.0993176 444.690944,32.8535991 C444.690944,36.6656389 443.411107,39.7845337 440.851395,42.2103771 C438.291683,44.6362206 434.912338,45.8491241 430.71326,45.8491241 C426.514181,45.8491241 423.134837,44.6362206 420.575124,42.2103771 C418.015412,39.7845337 416.735575,36.6656389 416.735575,32.8535991 Z M499.599988,162.641708 C486.389797,162.641708 475.635863,158.342684 467.337865,149.744507 C459.039867,141.14633 454.89093,129.69208 454.89093,115.381415 L454.89093,112.907979 C454.89093,103.308644 456.639312,94.7253185 460.136127,87.1577446 C463.632942,79.5901707 468.586689,73.7599872 474.997517,69.6670192 C481.408345,65.5740513 488.72102,63.527598 496.935761,63.527598 C509.257872,63.527598 518.957226,67.6499499 526.034114,75.8947775 C533.111002,84.1396051 536.649393,95.8294175 536.649393,110.964565 L536.649393,121.388331 L479.285258,121.388331 C480.062328,127.630843 482.407379,132.636556 486.320482,136.40562 C490.233585,140.174684 495.187332,142.059188 501.181872,142.059188 C510.451208,142.059188 517.694503,138.496298 522.911973,131.370412 L534.73448,145.415994 C531.126654,150.834024 526.242287,155.059434 520.081232,158.092353 C513.920176,161.125272 507.093163,162.641708 499.599988,162.641708 Z M496.485436,84.211002 C491.712005,84.211002 487.840589,85.9188335 484.871071,89.3345478 C481.901554,92.7502621 480.000536,97.6381937 479.167961,103.998489 L512.637311,103.998489 L512.637311,101.966738 C512.526301,96.3131423 511.083193,91.9405046 508.307942,88.8486943 C505.532692,85.7568839 501.591896,84.211002 496.485436,84.211002 Z M569.945381,67.8652226 L570.730641,78.816467 C577.478097,70.3474623 586.523041,66.1130235 597.865745,66.1130235 C607.870593,66.1130235 615.315949,69.0625291 620.202037,74.961629 C625.088125,80.8607288 627.589299,89.6800428 627.705635,101.419836 L627.705635,162.659194 L602.490056,162.659194 L602.490056,102.033105 C602.490056,96.6596678 601.326719,92.7610637 599.00001,90.3371762 C596.673302,87.9132886 592.805206,86.701363 587.395609,86.701363 C580.299147,86.701363 574.976881,89.7384778 571.428651,95.8127984 L571.428651,162.659194 L546.213072,162.659194 L546.213072,67.8652226 L569.945381,67.8652226 Z M638.171521,112.632337 C638.171521,97.739794 641.535083,85.8789151 648.262309,77.0493443 C654.989535,68.2197735 664.191176,63.8050543 675.867507,63.8050543 C685.23228,63.8050543 692.966992,67.2779667 699.071876,74.2238958 L699.071876,0.9024027 L724.854508,0.9024027 L724.854508,161.106438 L701.650139,161.106438 L700.40546,150.952483 C694.004223,158.899096 685.765717,162.872344 675.689695,162.872344 C664.368989,162.872344 655.285888,158.442909 648.440121,149.583906 C641.594353,140.724903 638.171521,128.407837 638.171521,112.632337 Z M663.919886,114.512444 C663.919886,123.459742 665.490537,130.317273 668.631885,135.085241 C671.773233,139.853209 676.337009,142.237158 682.323351,142.237158 C690.265627,142.237158 695.866626,138.911403 699.126515,132.259793 L699.126515,94.5577136 C695.925896,87.9061036 690.384168,84.5803485 682.501163,84.5803485 C670.113583,84.5803485 663.919886,94.5576138 663.919886,114.512444 Z M790.255027,134.161558 C790.255027,131.037279 788.713985,128.57621 785.631855,126.778276 C782.549726,124.980341 777.603716,123.374015 770.793677,121.959247 C748.132687,117.184405 736.802361,107.51697 736.802361,92.9566505 C736.802361,84.4680434 740.310066,77.3795732 747.32558,71.6910275 C754.341094,66.0024817 763.513961,63.1582515 774.844456,63.1582515 C786.938145,63.1582515 796.610016,66.0172186 803.860359,71.7352387 C811.110702,77.4532588 814.735819,84.8806787 814.735819,94.0177211 L789.286362,94.0177211 C789.286362,90.3629041 788.112235,87.3418306 785.763946,84.9544098 C783.415657,82.5669891 779.74651,81.3732966 774.756395,81.3732966 C770.470768,81.3732966 767.153859,82.3459349 764.80557,84.2912407 C762.457281,86.2365465 761.283154,88.7123531 761.283154,91.7187348 C761.283154,94.5482706 762.618723,96.8324969 765.289902,98.5714824 C767.961081,100.310468 772.466793,101.813636 778.807174,103.081032 C785.147555,104.348429 790.489833,105.777912 794.834168,107.369526 C808.278123,112.321214 815,120.898115 815,133.100488 C815,141.82489 811.272147,148.883886 803.816329,154.277688 C796.360511,159.671491 786.732669,162.368352 774.932516,162.368352 C766.948333,162.368352 759.859541,160.938868 753.665929,158.079858 C747.472316,155.220848 742.614366,151.300821 739.091932,146.319659 C735.569498,141.338497 733.808308,135.959512 733.808308,130.182544 L757.936858,130.182544 C758.171687,134.721591 759.844818,138.199509 762.956301,140.616405 C766.067784,143.0333 770.235935,144.241729 775.460879,144.241729 C780.333579,144.241729 784.017402,143.313302 786.512459,141.456419 C789.007517,139.599536 790.255027,137.16794 790.255027,134.161558 Z" id="Barfriends" fill="#F87000"></path>
    </g>
</svg>
